X:135
T:Halblauter Steirer (4.)
C:traditionell
R:Steirer
A:Salzkammergut
B:"(1.) Spielheft fuer Okarina", V .Derschmidt, Oberoesterreichische Landesarbeitsgemeinschaft fuer Volkslied/Volksmusik/Volkstanz, Linz 1992
Z:abc transcription Simon Wascher
N:im buch in F, nr. 4
M:3/4
L:1/8
K:F
V:1
|: AA |\
.B2 .A2 .G2 | (FC) F2 CF | (EC) E2 CE | (FC)F (A^GA) |\
.B2 .A2 .G2 | (FC) F2 CF | (EC) E2 CE |1 F4 :|\
########################################[2 F6 ||
V:2
|: cc |\
.d2 .c2 .B2 | (AF) A2 FA | (GE) G2 EG | (AF)A (c=Bc) |\
.d2 .c2 .B2 | (AF) A2 FA | (GE) G2 EG |1 A4 :|\
######################################[2 A6 ||
